!!!COM: Hugo Wolf
!!!CNT: Deutscher
!!!TXO: Deutsche 
!!!OTL: Der Soldat I
!!!ODT: 1887/03/07
!!!ONM: No. 5
!!!LYR: Joseph von Eichendorff
!!!ENC: Brian Bice
!!!YOR: 45 Songs on Poems of Goethe and Eichendorff, Dover Publications, 1995
!!NB: Vocal melody and text only encoded.
**kern	**silbe
*clefG2	*
*k[]	*
*M3/8	*
=13	=13
{4g	{Ist
8cc	auch
=14	=14
8a	schmuck
8b	nicht
8dd	mein
=15	=15
4cc	Ro2ss-
8g}	-lein,}
=16	=16
8r	.
8r	.
{8g	{so
=17	=17
8g	ist's
8cc	doch
8b	recht
=18	=18
(cq	klug,
[4.b)	|
=19	=19
4b]}	|}
8r	.
=20	=20
8r	.
{8a	{tra2gt
8a-	im
=21	=21
4g	Fin-
8cc	-stern
=22	=22
(8a	zu
8b)	|
8dd	'nem
=23	=23
4cc	Schlo2ss-
8g	-lein
=24	=24
8r	.
8r	.
8g	mich
=25	=25
8a	rasch
8g	noch
16r	.
16f#	ge-
=26	=26
[4.e	-nug.
=27	=27
8e]}	|}
8r	.
8r	.
=29	=29
{4a	{Ist
8d	das
=30	=30
8b	Schoss
8cc#	auch
8ee	nicht
=31	=31
4dd	pra2ch-
8a	-tig,
=32	=32
8r	.
8r	.
8a	zum
=33	=33
4a	Gar-
8b	-ten
=34	=34
4cc#	aus
8dd	er
=35	=35
[4.cc#	Tu2r
=36	=36
8cc#]}	|}
{8b	{tritt
8a	ein
=37	=37
4a	Ma2d-
8dd	-chen
=38	=38
(8b	doch
8cc#)	|
8ee	all-
=39	=39
4dd	-na2ch-
8a	-tig
=40	=40
8r	.
8r	.
8a	dort
=41	=41
8b	freund-
8a#	-lich
8g#	her-
=42	=42
[4.f#	-fu2r.
=43	=43
8f#]}	|}
8r	.
8r	.
=45	=45
{4b	{Und
8ee	ist
=46	=46
(8dd	auch
8cc#)	|
8b	die
=47	=47
(4a#	Klei-
8f#)}	-ne}
=49	=49
{4b	{nicht
8cc#	die
=50	=50
(24dd	scho2nst'
24ee	|
24dd)	|
8cc#	auf
8b	der
=51	=51
[4.a#	Welt,
=52	=52
4a#]}	|}
8r	.
=53	=53
{4b	{so
8ff#	gibt's
=54	=54
4cc#	doch
8dd#	just
=55	=55
(4ff#	kei-
[8ee	|
=56	=56
8ee]	|
8dd#)	|
8cc#	-ne,
=57	=57
8r	.
8f#	die
8g#	mir
=58	=58
8.an	bes-
16g#	-ser
8f#	ge-
=59	=59
(g#q	-fa2llt,
[4.b)	|
=60	=60
4.b]}	|}
=61	=61
8r	.
{8f#	{die
8g#	mir
=62	=62
(bq	bes-
8.a)	|
16g#	-ser
8f#	ge-
=63	=63
(g#q	-fa2llt,
[4.b)	|
=64	=64
4.b]}	|}
=65	=65
8r	.
{8f#	{die
8g#	mir
=66	=66
(bq	bes-
8.a)	|
16g#	-ser
8f#	ge-
=67	=67
[4.e	-fa2llt.
=68	=68
8e]}	|}
8r	.
8r	.
=71	=71
{4.gn	{Und
=72	=72
8a	spricht
8b	sie
8dd	vom
=73	=73
4.cc	Frei-
=74	=74
4bn	-en,
8a	so
=75	=75
8.g	schwing'
16cc	ich
8cc	mich
=76	=76
4cc	auf
8dd	mein
=77	=77
[4.ee	Ross,
=78	=78
8ee]}	|}
8r	.
8r	.
=79	=79
{4.ff	{ich
=80	=80
8.ff	blei-
16ff	-be
8ff	im
=81	=81
4.f	Frei-
=82	=82
4f	|
8f#	-en,
=83	=83
8r	.
8r	.
8g	und
=84	=84
8g	sie
8a	auf
8b	dem
=85	=85
(bq	Schloss,
[4.g)	|
=86	=86
8g]}	|}
8r	.
8r	.
=87	=87
8r	.
8r	.
{8g	{und
=88	=88
8g	sie
8a	auf
8b	dem
=89	=89
(bq	Schloss,
[4.g)	|
=90	=90
8g]}	|}
8r	.
8r	.
=91	=91
8r	.
8r	.
{8g	{und
=92	=92
8g	sie
8a	auf
8b	dem
=93	=93
8c}	Schloss.}
8r	.
8r	.
*-	*-
